public/svgs/solid/sidebar-flip.svg

<svg xmlns="http://www.w3.org/2000/svg" viewBox="0 0 512 512"><!-- Font Awesome Pro 6.0.0-alpha2 by @fontawesome - https://fontawesome.com License - https://fontawesome.com/license (Commercial License) --><path d="M0 96V416C0 451.346 28.654 480 64 480H448C483.346 480 512 451.346 512 416V96C512 60.652 483.346 32 448 32H64C28.654 32 0 60.652 0 96ZM352 312C352 298.744 362.746 288 376 288H424C437.254 288 448 298.744 448 312C448 325.254 437.254 336 424 336H376C362.746 336 352 325.254 352 312ZM352 216C352 202.744 362.746 192 376 192H424C437.254 192 448 202.744 448 216C448 229.254 437.254 240 424 240H376C362.746 240 352 229.254 352 216ZM352 120C352 106.744 362.746 96 376 96H424C437.254 96 448 106.744 448 120C448 133.254 437.254 144 424 144H376C362.746 144 352 133.254 352 120ZM64 96H288V416H64V96Z"/></svg>

<svg xmlns="http://www.w3.org/2000/svg" viewBox="0 0 512 512"><!--! Font Awesome Pro 6.5.1 by @fontawesome - https://fontawesome.com License - https://fontawesome.com/license (Commercial License) Copyright 2023 Fonticons, Inc. --><path d="M512 96c0-35.3-28.7-64-64-64H64C28.7 32 0 60.7 0 96V416c0 35.3 28.7 64 64 64H448c35.3 0 64-28.7 64-64V96zM288 96V416H64V96H288zm136 0c13.3 0 24 10.7 24 24s-10.7 24-24 24H376c-13.3 0-24-10.7-24-24s10.7-24 24-24h48zm24 120c0 13.3-10.7 24-24 24H376c-13.3 0-24-10.7-24-24s10.7-24 24-24h48c13.3 0 24 10.7 24 24zm-24 72c13.3 0 24 10.7 24 24s-10.7 24-24 24H376c-13.3 0-24-10.7-24-24s10.7-24 24-24h48z"/></svg>
